images/Services/gynecology.svg

<?xml-stylesheet type="text/css" href="./css/style.min.css"?>
<svg width="105" height="83" viewBox="0 0 105 83"  xmlns="http://www.w3.org/2000/svg">
<path d="M80.4072 6.99907C76.1006 6.99766 71.868 5.87979 68.1222 3.75457C63.4857 1.2206 58.2733 -0.0729997 52.99 -0.000929361C52.8255 -0.000929361 52.6645 0.0130706 52.5 0.0165706C52.3355 0.0200706 52.1745 -0.000929361 52.01 -0.000929361C46.7267 -0.0729997 41.5143 1.2206 36.8778 3.75457C33.1308 5.90014 28.8842 7.0193 24.5665 6.99907H24.5C10.99 6.99907 0 14.4576 0 23.6241C0.0971569 27.1496 1.59171 30.4919 4.1545 32.9148C3.72556 33.8425 3.5023 34.852 3.5 35.8741C3.5 41.2711 9.6495 45.4991 17.5 45.4991C25.3505 45.4991 31.5 41.2711 31.5 35.8741C31.3837 33.1149 29.912 30.5912 27.5678 29.1313C28.2636 27.8677 29.2731 26.8046 30.499 26.0443C32.1436 25.0923 34.2418 25.5382 35.357 27.0768C36.3195 28.6063 36.5558 35.5556 36.743 41.1398C37.016 49.2318 37.2978 57.6003 39.2455 61.7181C39.6592 62.5918 40.7028 62.9647 41.5765 62.5511C42.4502 62.1374 42.8232 61.0938 42.4095 60.2201C40.7733 56.7586 40.4845 48.3988 40.2413 41.0226C39.9595 32.6646 39.7163 27.4286 38.3162 25.2113C36.2118 22.0947 32.0618 21.1253 28.7945 22.9871C26.9836 24.0842 25.4963 25.6423 24.4843 27.5021C22.2535 26.6568 19.8855 26.232 17.5 26.2491C13.4161 26.1033 9.42111 27.4642 6.2755 30.0728C4.56597 28.353 3.57384 26.0479 3.5 23.6241C3.5 16.3861 12.9202 10.4991 24.5823 10.4991H24.6558C26.9896 10.4948 29.3138 10.2009 31.5752 9.62407C30.3996 11.4519 29.7667 13.5758 29.75 15.7491C29.75 16.7156 30.5335 17.4991 31.5 17.4991C32.4665 17.4991 33.25 16.7156 33.25 15.7491C33.25 9.09907 41.8442 3.67407 52.5 3.51482C63.1558 3.67407 71.75 9.09907 71.75 15.7491C71.75 16.7156 72.5335 17.4991 73.5 17.4991C74.4665 17.4991 75.25 16.7156 75.25 15.7491C75.2338 13.5755 74.6002 11.4513 73.423 9.62407C75.7114 10.2026 78.0626 10.4965 80.423 10.4991H80.5C92.0798 10.4991 101.5 16.3861 101.5 23.6241C101.426 26.0479 100.434 28.353 98.7245 30.0728C95.5789 27.4642 91.5839 26.1033 87.5 26.2491C85.1387 26.2324 82.7943 26.6476 80.5823 27.4741C79.5716 25.6264 78.0907 24.0785 76.2895 22.9871C73.0208 21.1267 68.871 22.0957 66.7643 25.2113C65.3643 27.4286 65.1227 32.6646 64.8392 41.0226C64.5907 48.3988 64.3142 56.7586 62.671 60.2201C62.2573 61.0938 62.6303 62.1374 63.504 62.5511C64.3777 62.9647 65.4213 62.5918 65.835 61.7181C67.781 57.6003 68.0645 49.2318 68.3375 41.1398C68.5247 35.5556 68.761 28.6063 69.7253 27.0768C70.8407 25.5371 72.9406 25.0917 74.585 26.0461C75.7966 26.7954 76.7961 27.8425 77.4883 29.0876C75.1126 30.5454 73.6176 33.0893 73.5 35.8741C73.5 41.2711 79.6495 45.4991 87.5 45.4991C95.3505 45.4991 101.5 41.2711 101.5 35.8741C101.498 34.852 101.274 33.8425 100.845 32.9148C103.408 30.4919 104.903 27.1496 105 23.6241C105 14.4576 94.01 6.99907 80.4072 6.99907ZM17.5 29.7491C19.9007 29.7206 22.2741 30.2603 24.4265 31.3241L24.4405 31.3346H24.4527C26.3825 32.0769 27.7463 33.8221 28 35.8741C28 39.1991 23.191 41.9991 17.5 41.9991C11.809 41.9991 7 39.1991 7 35.8741C7.01725 35.111 7.2609 34.3703 7.7 33.7461V33.7321C9.2295 31.4326 13.0953 29.7491 17.5 29.7491ZM87.5 41.9991C81.809 41.9991 77 39.1991 77 35.8741C77 31.9821 83.0235 29.7491 87.5 29.7491C91.9047 29.7491 95.7687 31.4326 97.3 33.7303L97.3087 33.7443C97.7451 34.3701 97.9857 35.1114 98 35.8741C98 39.1991 93.191 41.9991 87.5 41.9991Z" fill="#87AD3B"/>
<path d="M52.5 82.25C53.4665 82.25 54.25 81.4665 54.25 80.5V47.901C58.3212 47.0637 61.2448 43.4824 61.25 39.326V32.326C61.25 27.4935 57.3325 23.576 52.5 23.576C47.6675 23.576 43.75 27.4935 43.75 32.326V39.326C43.7552 43.4824 46.6788 47.0637 50.75 47.901V80.5C50.75 81.4665 51.5335 82.25 52.5 82.25ZM47.25 39.3277V32.3277C47.25 29.4282 49.6005 27.0777 52.5 27.0777C55.3995 27.0777 57.75 29.4282 57.75 32.3277V39.3277C57.75 42.2204 55.4102 44.5681 52.5175 44.5777H52.5H52.4825C49.5898 44.5681 47.25 42.2204 47.25 39.3277Z" fill="#87AD3B"/>
</svg>

<?xml-stylesheet type="text/css" href="/css/style.min.css"?><svg viewBox="0 0 105 83" xmlns="http://www.w3.org/2000/svg"><path d="M80.407 7a24.912 24.912 0 01-12.285-3.245A30.68 30.68 0 0052.99-.001c-.165 0-.326.014-.49.018-.164.003-.325-.018-.49-.018a30.68 30.68 0 00-15.132 3.756 24.544 24.544 0 01-12.311 3.244H24.5C10.99 7 0 14.458 0 23.624a13.29 13.29 0 004.154 9.29 7.09 7.09 0 00-.654 2.96c0 5.397 6.15 9.625 14 9.625s14-4.228 14-9.625a8.358 8.358 0 00-3.932-6.743 8.4 8.4 0 012.931-3.087 3.707 3.707 0 014.858 1.033c.962 1.53 1.199 8.479 1.386 14.063.273 8.092.555 16.46 2.502 20.578a1.75 1.75 0 003.165-1.498c-1.637-3.46-1.925-11.82-2.17-19.197-.282-8.358-.525-13.594-1.925-15.812a7.192 7.192 0 00-9.522-2.224 11.966 11.966 0 00-4.31 4.515A19.32 19.32 0 0017.5 26.25a16.653 16.653 0 00-11.224 3.824 9.56 9.56 0 01-2.776-6.45c0-7.238 9.42-13.125 21.082-13.125h.074a28.205 28.205 0 006.92-.875 11.486 11.486 0 00-1.826 6.125 1.75 1.75 0 103.5 0c0-6.65 8.594-12.075 19.25-12.234 10.656.16 19.25 5.584 19.25 12.234a1.75 1.75 0 103.5 0 11.467 11.467 0 00-1.827-6.125 28.69 28.69 0 007 .875h.077c11.58 0 21 5.887 21 13.125a9.561 9.561 0 01-2.775 6.449A16.653 16.653 0 0087.5 26.249a19.373 19.373 0 00-6.918 1.225 11.954 11.954 0 00-4.292-4.487 7.2 7.2 0 00-9.526 2.224c-1.4 2.218-1.641 7.454-1.925 15.812-.248 7.376-.525 15.736-2.168 19.197a1.75 1.75 0 103.164 1.498c1.946-4.118 2.23-12.486 2.503-20.578.187-5.584.423-12.534 1.387-14.063a3.705 3.705 0 014.86-1.03 8.342 8.342 0 012.903 3.04 8.377 8.377 0 00-3.988 6.787c0 5.397 6.15 9.625 14 9.625s14-4.228 14-9.625a7.084 7.084 0 00-.655-2.96 13.288 13.288 0 004.155-9.29C105 14.458 94.01 7 80.407 7zM17.5 29.75c2.4-.03 4.774.51 6.927 1.574l.014.01h.012A5.6 5.6 0 0128 35.875C28 39.2 23.191 42 17.5 42S7 39.2 7 35.874a3.85 3.85 0 01.7-2.128v-.014c1.53-2.3 5.395-3.983 9.8-3.983zM87.5 42C81.809 42 77 39.2 77 35.873c0-3.892 6.023-6.125 10.5-6.125 4.405 0 8.269 1.684 9.8 3.981l.009.014a3.85 3.85 0 01.691 2.13C98 39.2 93.191 42 87.5 42z" fill="#87AD3B"/><path d="M52.5 82.25a1.75 1.75 0 001.75-1.75V47.901a8.766 8.766 0 007-8.575v-7a8.75 8.75 0 10-17.5 0v7a8.766 8.766 0 007 8.575V80.5c0 .966.783 1.75 1.75 1.75zm-5.25-42.922v-7a5.25 5.25 0 1110.5 0v7a5.25 5.25 0 01-5.233 5.25h-.034a5.25 5.25 0 01-5.233-5.25z" fill="#87AD3B"/></svg>
